Suru++-Ubuntu/apps/scalable/monero-qt.svg

<svg width="256" height="256" version="1.1" viewBox="0 0 67.73 67.73" xmlns="http://www.w3.org/2000/svg" xmlns:xlink="http://www.w3.org/1999/xlink">
 <defs>
  <linearGradient id="linearGradient1108" x1="296" x2="296" y1="-212" y2="236" gradientUnits="userSpaceOnUse">
   <stop style="stop-color:#ffffff" offset="0"/>
   <stop style="stop-color:#ffffff;stop-opacity:.09803922" offset=".125"/>
   <stop style="stop-color:#000000;stop-opacity:.09803922" offset=".925"/>
   <stop style="stop-color:#000000;stop-opacity:.49803922" offset="1"/>
  </linearGradient>
  <clipPath id="clipPath1082-3-3675">
   <path d="M 361.9375,-212 C 507.2348,-212 528,-191.28677 528,-46.125 V 70.125 C 528,215.28618 507.2348,236 361.9375,236 H 214.0625 C 68.7652,236 48,215.28618 48,70.125 V -46.125 C 48,-191.28677 68.7652,-212 214.0625,-212 Z" style="fill:#8c59d9"/>
  </clipPath>
  <filter id="filter971" x="-.01" y="-.01" width="1.023" height="1.025" style="color-interpolation-filters:sRGB">
   <feGaussianBlur stdDeviation="1.16"/>
  </filter>
  <filter id="filter977" x="-.02" y="-.03" width="1.046" height="1.05" style="color-interpolation-filters:sRGB">
   <feGaussianBlur stdDeviation="2.32"/>
  </filter>
 </defs>
 <g transform="translate(0,-229.26666)">
  <path transform="matrix(.26458333 0 0 .26458333 -1.8735233e-8 232.67026)" d="m162.53675 5.5680001c72.64865 0 83.03125 10.356615 83.03125 82.937505v58.125005c0 72.58059-10.3826 82.9375-83.03125 82.9375h-73.937496c-72.648654 0-83.031254-10.35691-83.031254-82.9375v-58.125005c0-72.58089 10.3826-82.937505 83.031254-82.937505z" style="filter:url(#filter977);opacity:.02000002"/>
  <path transform="matrix(.26458333 0 0 .26458333 -1.8735233e-8 232.67026)" d="m162.53675 3.5680001c72.64865 0 83.03125 10.356615 83.03125 82.937505v58.125005c0 72.58059-10.3826 82.9375-83.03125 82.9375h-73.937496c-72.648654 0-83.031254-10.35691-83.031254-82.9375v-58.125005c0-72.58089 10.3826-82.937505 83.031254-82.937505z" style="filter:url(#filter971);opacity:.1"/>
  <path d="m43.004513 233.61429c19.221622 0 21.968685 2.74019 21.968685 21.94388v15.37891c0 19.20362-2.747063 21.94388-21.968685 21.94388h-19.56263c-19.221621 0-21.968684-2.74026-21.968684-21.94388v-15.37891c0-19.20369 2.747063-21.94388 21.968684-21.94388z" style="fill:#ff6600"/>
  <path transform="matrix(.13229167 0 0 .13229167 -4.876801 261.66013)" d="M 361.9375,-212 C 507.2348,-212 528,-191.28677 528,-46.125 V 70.125 C 528,215.28618 507.2348,236 361.9375,236 H 214.0625 C 68.7652,236 48,215.28618 48,70.125 V -46.125 C 48,-191.28677 68.7652,-212 214.0625,-212 Z" clip-path="url(#clipPath1082-3-3675)" style="fill:none;opacity:.4;stroke-linecap:round;stroke-linejoin:round;stroke-width:8;stroke:url(#linearGradient1108)"/>
  <path d="m1.4731987 273.15378c0.021652 1.45151 0.027945 2.96497 0.1014592 4.21314 0.056425 0.95803 0.1304682 1.85824 0.2251773 2.7042 0.094709 0.84597 0.2102232 1.63798 0.3499307 2.3786s0.3034522 1.43016 0.4948724 2.07215c0.1914203 0.64198 0.4101553 1.23635 0.6600026 1.7864 0.2498473 0.55006 0.5308496 1.05549 0.8458383 1.52034 0.3149888 0.46485 0.6639827 0.88914 1.0508275 1.27549 0.3868446 0.38635 0.8116251 0.73471 1.27704 1.04927 0.4654148 0.31456 0.9717062 0.59532 1.5224057 0.8448 0.5506993 0.24949 1.1457789 0.46785 1.7884773 0.65897 0.6426973 0.19113 1.3328073 0.35488 2.0742193 0.49436 0.741411 0.13948 1.533828 0.25487 2.380667 0.34941 0.846839 0.0945 1.748323 0.16835 2.707304 0.22466 1.917963 0.11263 4.066903 0.15529 6.473719 0.15529h19.59612c2.406815 0 4.555756-0.0427 6.473717-0.15529 0.958981-0.0563 1.859948-0.13012 2.706787-0.22466 0.846838-0.0945 1.639257-0.20993 2.380667-0.34941 0.741412-0.13948 1.432039-0.30323 2.074738-0.49436 0.642697-0.19112 1.237778-0.40948 1.788478-0.65897 0.550698-0.24948 1.056989-0.53024 1.522406-0.8448 0.465414-0.31456 0.889676-0.66292 1.276521-1.04927 0.386844-0.38635 0.736355-0.81064 1.051346-1.27549 0.314987-0.46485 0.595473-0.97028 0.84532-1.52034 0.249847-0.55005 0.469101-1.14442 0.66052-1.7864 0.19142-0.64199 0.355165-1.33153 0.494873-2.07215 0.139706-0.74062 0.255222-1.53263 0.34993-2.3786 0.09471-0.84596 0.168752-1.74617 0.225178-2.7042 0.07351-1.24817 0.07981-2.76163 0.101458-4.21314h-18.648821v-15.90218l-13.251814 11.92663-11.926633-10.60145-1.325181 14.577z" style="fill:#4c4c4c"/>
  <path transform="matrix(.26458333 0 0 .26458333 0 229.26666)" d="m5.5683594 156v1.49414c0 6.88031 0.2145159 12.69967 0.4453125 18.50586h79.554687v-50l40.000001 40 40-40v50h79.55469c0.23079-5.80619 0.44531-11.62555 0.44531-18.50586v-1.49414h-60v-75l-60 55-60.000001-55v75h-60z" style="fill:#ffffff"/>
 </g>
</svg>

<svg xmlns="http://www.w3.org/2000/svg" xmlns:xlink="http://www.w3.org/1999/xlink" width="256" height="256" version="1.1" viewBox="0 0 67.73 67.73">
 <defs>
  <linearGradient id="linearGradient1108" x1="296" x2="296" y1="-212" y2="236" gradientUnits="userSpaceOnUse" xlink:href="#linearGradient1013"/>
  <linearGradient id="linearGradient1013">
   <stop style="stop-color:#ffffff" offset="0"/>
   <stop offset=".125" style="stop-color:#ffffff;stop-opacity:0.09803922"/>
   <stop offset=".925" style="stop-color:#000000;stop-opacity:0.09803922"/>
   <stop style="stop-color:#000000;stop-opacity:0.49803922" offset="1"/>
  </linearGradient>
  <clipPath id="clipPath1082-3-3675" clipPathUnits="userSpaceOnUse">
   <path style="fill:#8c59d9" d="M 361.9375,-212 C 507.2348,-212 528,-191.28677 528,-46.125 V 70.125 C 528,215.28618 507.2348,236 361.9375,236 H 214.0625 C 68.7652,236 48,215.28618 48,70.125 V -46.125 C 48,-191.28677 68.7652,-212 214.0625,-212 Z"/>
  </clipPath>
  <filter id="filter971" width="1.023" height="1.025" x="-.01" y="-.01" style="color-interpolation-filters:sRGB">
   <feGaussianBlur stdDeviation="1.16"/>
  </filter>
  <filter id="filter977" width="1.046" height="1.05" x="-.02" y="-.03" style="color-interpolation-filters:sRGB">
   <feGaussianBlur stdDeviation="2.32"/>
  </filter>
 </defs>
 <g transform="translate(0,-229.26666)">
  <path style="opacity:0.02000002;filter:url(#filter977)" d="m 162.53675,5.5680001 c 72.64865,0 83.03125,10.3566149 83.03125,82.9375049 v 58.125005 c 0,72.58059 -10.3826,82.9375 -83.03125,82.9375 H 88.599254 C 15.9506,229.56801 5.568,219.2111 5.568,146.63051 V 88.505505 c 0,-72.58089 10.3826,-82.9375049 83.031254,-82.9375049 z" transform="matrix(0.26458333,0,0,0.26458333,-1.8735233e-8,232.67026)"/>
  <path d="m 162.53675,3.5680001 c 72.64865,0 83.03125,10.3566149 83.03125,82.9375049 v 58.125005 c 0,72.58059 -10.3826,82.9375 -83.03125,82.9375 H 88.599254 C 15.9506,227.56801 5.568,217.2111 5.568,144.63051 V 86.505505 c 0,-72.58089 10.3826,-82.9375049 83.031254,-82.9375049 z" transform="matrix(0.26458333,0,0,0.26458333,-1.8735233e-8,232.67026)" style="opacity:0.1;filter:url(#filter971)"/>
  <path d="m 43.004513,233.61429 c 19.221622,0 21.968685,2.74019 21.968685,21.94388 v 15.37891 c 0,19.20362 -2.747063,21.94388 -21.968685,21.94388 h -19.56263 c -19.221621,0 -21.968684,-2.74026 -21.968684,-21.94388 v -15.37891 c 0,-19.20369 2.747063,-21.94388 21.968684,-21.94388 z" style="fill:#ff6600"/>
  <path style="opacity:0.4;fill:none;stroke:url(#linearGradient1108);stroke-width:8;stroke-linecap:round;stroke-linejoin:round" d="M 361.9375,-212 C 507.2348,-212 528,-191.28677 528,-46.125 V 70.125 C 528,215.28618 507.2348,236 361.9375,236 H 214.0625 C 68.7652,236 48,215.28618 48,70.125 V -46.125 C 48,-191.28677 68.7652,-212 214.0625,-212 Z" clip-path="url(#clipPath1082-3-3675)" transform="matrix(0.13229167,0,0,0.13229167,-4.876801,261.66013)"/>
  <path d="m 1.4731987,273.15378 c 0.021652,1.45151 0.027945,2.96497 0.1014592,4.21314 0.056425,0.95803 0.1304682,1.85824 0.2251773,2.7042 0.094709,0.84597 0.2102232,1.63798 0.3499307,2.3786 0.1397075,0.74062 0.3034522,1.43016 0.4948724,2.07215 0.1914203,0.64198 0.4101553,1.23635 0.6600026,1.7864 0.2498473,0.55006 0.5308496,1.05549 0.8458383,1.52034 0.3149888,0.46485 0.6639827,0.88914 1.0508275,1.27549 0.3868446,0.38635 0.8116251,0.73471 1.27704,1.04927 0.4654148,0.31456 0.9717062,0.59532 1.5224057,0.8448 0.5506993,0.24949 1.1457789,0.46785 1.7884773,0.65897 0.6426973,0.19113 1.3328073,0.35488 2.0742193,0.49436 0.741411,0.13948 1.533828,0.25487 2.380667,0.34941 0.846839,0.0945 1.748323,0.16835 2.707304,0.22466 1.917963,0.11263 4.066903,0.15529 6.473719,0.15529 h 19.59612 c 2.406815,0 4.555756,-0.0427 6.473717,-0.15529 0.958981,-0.0563 1.859948,-0.13012 2.706787,-0.22466 0.846838,-0.0945 1.639257,-0.20993 2.380667,-0.34941 0.741412,-0.13948 1.432039,-0.30323 2.074738,-0.49436 0.642697,-0.19112 1.237778,-0.40948 1.788478,-0.65897 0.550698,-0.24948 1.056989,-0.53024 1.522406,-0.8448 0.465414,-0.31456 0.889676,-0.66292 1.276521,-1.04927 0.386844,-0.38635 0.736355,-0.81064 1.051346,-1.27549 0.314987,-0.46485 0.595473,-0.97028 0.84532,-1.52034 0.249847,-0.55005 0.469101,-1.14442 0.66052,-1.7864 0.19142,-0.64199 0.355165,-1.33153 0.494873,-2.07215 0.139706,-0.74062 0.255222,-1.53263 0.34993,-2.3786 0.09471,-0.84596 0.168752,-1.74617 0.225178,-2.7042 0.07351,-1.24817 0.07981,-2.76163 0.101458,-4.21314 H 46.324377 V 257.2516 l -13.251814,11.92663 -11.926633,-10.60145 -1.325181,14.577 z" style="fill:#4c4c4c"/>
  <path d="M 5.5683594 156 L 5.5683594 157.49414 C 5.5683594 164.37445 5.7828753 170.19381 6.0136719 176 L 85.568359 176 L 85.568359 126 L 125.56836 166 L 165.56836 126 L 165.56836 176 L 245.12305 176 C 245.35384 170.19381 245.56836 164.37445 245.56836 157.49414 L 245.56836 156 L 185.56836 156 L 185.56836 81 L 125.56836 136 L 65.568359 81 L 65.568359 156 L 5.5683594 156 z" transform="matrix(0.26458333,0,0,0.26458333,0,229.26666)" style="fill:#ffffff"/>
 </g>
</svg>
